X:1
T:title
M:4/4
Q:120
L:1/8
R:Reel
K:C
 ^d'2 ^d'2 _b4 | f'4 _e4 | e3 ^e'2 _bf'2 |  _B2g4ac' |  ^g2 _G2 ^e'4 |  _f4 ^c'3g' | e3 _C2 ^g ^f'2 |  _e3 ^E _F2 ^c _C | 